X:2
T: Megmondtam apámnak, én édes anyámnak
M: 4/4
L:1/4
K:G
d>B d<c | B2 B z | 
e>B d/ (c B/) | A2 A z |
d>d d/ (c B/) | G2 B2 |
B>E G<F | E2 E z | 

